SVG_Azure_All/Private Endpoint.svg

<?xml version="1.0" encoding="UTF-8" standalone="no"?>
<!-- Generated by Microsoft Visio, SVG Export Private Endpoint.svg Page-1 -->

<svg
   xmlns:dc="http://purl.org/dc/elements/1.1/"
   xmlns:cc="http://creativecommons.org/ns#"
   xmlns:rdf="http://www.w3.org/1999/02/22-rdf-syntax-ns#"
   xmlns:svg="http://www.w3.org/2000/svg"
   xmlns="http://www.w3.org/2000/svg"
   xmlns:sodipodi="http://sodipodi.sourceforge.net/DTD/sodipodi-0.dtd"
   xmlns:inkscape="http://www.inkscape.org/namespaces/inkscape"
   width="0.78083879in"
   height="0.70861in"
   viewBox="0 0 56.220295 51.020026"
   xml:space="preserve"
   class="st4"
   version="1.1"
   id="svg29"
   sodipodi:docname="Private Endpoint.svg"
   style="font-size:12px;overflow:visible;color-interpolation-filters:sRGB;fill:none;fill-rule:evenodd;stroke-linecap:square;stroke-miterlimit:3"
   inkscape:version="0.92.5 (2060ec1f9f, 2020-04-08)"><metadata
   id="metadata35"><rdf:RDF><cc:Work
       rdf:about=""><dc:format>image/svg+xml</dc:format><dc:type
         rdf:resource="http://purl.org/dc/dcmitype/StillImage" /></cc:Work></rdf:RDF></metadata><defs
   id="defs33" /><sodipodi:namedview
   pagecolor="#ffffff"
   bordercolor="#666666"
   borderopacity="1"
   objecttolerance="10"
   gridtolerance="10"
   guidetolerance="10"
   inkscape:pageopacity="0"
   inkscape:pageshadow="2"
   inkscape:window-width="640"
   inkscape:window-height="480"
   id="namedview31"
   showgrid="false"
   inkscape:zoom="1.8195051"
   inkscape:cx="37.480532"
   inkscape:cy="19.49946"
   inkscape:window-x="0"
   inkscape:window-y="0"
   inkscape:window-maximized="0"
   inkscape:current-layer="svg29" />
	<style
   type="text/css"
   id="style2">
	<![CDATA[
		.st1 {fill:#7a7a7a;stroke:none;stroke-linecap:butt;stroke-width:12.24}
		.st2 {fill:#57a300;stroke:none;stroke-linecap:butt;stroke-width:12.24}
		.st3 {fill:#3999c6;stroke:none;stroke-linecap:butt;stroke-width:12.24}
		.st4 {fill:none;fill-rule:evenodd;font-size:12px;overflow:visible;stroke-linecap:square;stroke-miterlimit:3}
	]]>
	</style>

	<g
   id="g27"
   transform="translate(-12.240946,-12.2443)">
		<title
   id="title4">Page-1</title>
		<g
   id="group2217-1"
   transform="translate(12.0088,-34.0157)">
			<title
   id="title6">Private Endpoint</title>
			<g
   id="group2218-2">
				<title
   id="title8">g10</title>
				<g
   id="shape2219-3"
   transform="translate(26.6143,-14.8866)">
					<title
   id="title10">path4</title>
					<rect
   x="0"
   y="66.824303"
   width="3.45625"
   height="30.455099"
   class="st1"
   id="rect12"
   style="fill:#7a7a7a;stroke:none;stroke-width:12.23999977;stroke-linecap:butt" />
				</g>
				<g
   id="shape2220-5"
   transform="translate(22.1212,-9.20471)">
					<title
   id="title15">path6</title>
					<path
   d="m 12.44,91.14 c 0,3.33 -2.84,6.14 -6.22,6.14 C 2.84,97.28 0,94.47 0,91.14 c 0,-3.33 2.84,-6.13 6.22,-6.13 3.38,0 6.22,2.8 6.22,6.13 z"
   class="st2"
   id="path17"
   inkscape:connector-curvature="0"
   style="fill:#57a300;stroke:none;stroke-width:12.23999977;stroke-linecap:butt" />
				</g>
				<g
   id="shape2221-7">
					<title
   id="title20">path8</title>
					<path
   d="m 33.41,51.26 c 0,2.71 -2.32,5 -5.07,5 -2.75,0 -5.07,-2.29 -5.07,-5 0,-2.72 2.32,-5 5.07,-5 2.75,0 5.07,2.28 5.07,5 z m 7.06,46.01 a 1.58988,1.56821 0 0 1 -1.14,-0.45 1.70624,1.68298 0 0 1 0,-2.37 L 51.51,82.44 a 0.986184,0.972744 -180 0 0 0.0012,-1.38071 L 39.55,69.47 A 1.48619,1.46593 0 0 1 39,68.4 c -0.02,-0.47 0.18,-0.94 0.54,-1.31 a 1.64172,1.61935 0 0 1 1.33,-0.49 c 0.43,0 0.84,0.18 1.16,0.49 L 53.45,78.05 56,80.56 c 0.51,0.63 0.69,1.69 0,2.38 l -2.76,2.71 -11.43,11.17 a 1.67743,1.65457 0 0 1 -1.17,0.46 h 0.01 z m -24.42,0 A 1.67052,1.64776 0 0 1 14.88,96.82 L 3.24,85.76 0.69,82.92 C 0,82.25 0.17,81.22 0.67,80.59 L 3.24,78.05 14.67,67.09 A 1.6325,1.61026 0 0 1 16,66.6 c 0.42,0 0.83,0.18 1.15,0.49 0.37,0.36 0.56,0.84 0.54,1.31 a 1.54379,1.52275 0 0 1 -0.56,1.09 L 5.4,81.06 A 0.982728,0.969335 -180 0 0 5.39885,82.44071 L 17.37,94.44 a 1.71315,1.6898 0 0 1 -0.01,2.38 c -0.3,0.3 -0.7,0.46 -1.13,0.46 z"
   class="st3"
   id="path22"
   inkscape:connector-curvature="0"
   style="fill:#3999c6;stroke:none;stroke-width:12.23999977;stroke-linecap:butt" />
				</g>
			</g>
		</g>
	</g>
</svg>

<?xml version="1.0" encoding="UTF-8" standalone="no"?>
<!DOCTYPE svg PUBLIC "-//W3C//DTD SVG 1.1//EN" "http://www.w3.org/Graphics/SVG/1.1/DTD/svg11.dtd">
<!-- Generated by Microsoft Visio, SVG Export Private Endpoint.svg Page-1 -->
<svg xmlns="http://www.w3.org/2000/svg" xmlns:xlink="http://www.w3.org/1999/xlink" xmlns:ev="http://www.w3.org/2001/xml-events"
		width="1.12087in" height="1.3511in" viewBox="0 0 80.7025 97.2794" xml:space="preserve" color-interpolation-filters="sRGB"
		class="st4">
	<style type="text/css">
	<![CDATA[
		.st1 {fill:#7a7a7a;stroke:none;stroke-linecap:butt;stroke-width:12.24}
		.st2 {fill:#57a300;stroke:none;stroke-linecap:butt;stroke-width:12.24}
		.st3 {fill:#3999c6;stroke:none;stroke-linecap:butt;stroke-width:12.24}
		.st4 {fill:none;fill-rule:evenodd;font-size:12px;overflow:visible;stroke-linecap:square;stroke-miterlimit:3}
	]]>
	</style>

	<g>
		<title>Page-1</title>
		<g id="group2202-1" transform="translate(12.0088,-34.0157)">
			<title>Private Endpoint</title>
			<g id="group2203-2">
				<title>g10</title>
				<g id="shape2204-3" transform="translate(26.6143,-14.8866)">
					<title>path4</title>
					<rect x="0" y="66.8243" width="3.45625" height="30.4551" class="st1"/>
				</g>
				<g id="shape2205-5" transform="translate(22.1212,-9.20471)">
					<title>path6</title>
					<path d="M12.44 91.14 C12.44 94.47 9.6 97.28 6.22 97.28 C2.84 97.28 0 94.47 0 91.14 C0 87.81 2.84 85.01 6.22
								 85.01 C9.6 85.01 12.44 87.81 12.44 91.14 Z" class="st2"/>
				</g>
				<g id="shape2206-7">
					<title>path8</title>
					<path d="M33.41 51.26 C33.41 53.97 31.09 56.26 28.34 56.26 C25.59 56.26 23.27 53.97 23.27 51.26 C23.27 48.54
								 25.59 46.26 28.34 46.26 C31.09 46.26 33.41 48.54 33.41 51.26 ZM40.47 97.27 A1.58988 1.56821 0 0
								 1 39.33 96.82 A1.70624 1.68298 0 0 1 39.33 94.45 L51.51 82.44 a0.986184 0.972744 -180 0 0 0.00115208
								 -1.38071 L39.55 69.47 A1.48619 1.46593 0 0 1 39 68.4 C38.98 67.93 39.18 67.46 39.54 67.09 A1.64172
								 1.61935 0 0 1 40.87 66.6 C41.3 66.6 41.71 66.78 42.03 67.09 L53.45 78.05 L56 80.56 C56.51 81.19
								 56.69 82.25 56 82.94 L53.24 85.65 L41.81 96.82 A1.67743 1.65457 0 0 1 40.64 97.28 L40.65 97.28 L40.47
								 97.27 ZM16.05 97.27 A1.67052 1.64776 0 0 1 14.88 96.82 L3.24 85.76 L0.69 82.92 C0 82.25 0.17 81.22
								 0.67 80.59 L3.24 78.05 L14.67 67.09 A1.6325 1.61026 0 0 1 16 66.6 C16.42 66.6 16.83 66.78 17.15
								 67.09 C17.52 67.45 17.71 67.93 17.69 68.4 A1.54379 1.52275 0 0 1 17.13 69.49 L5.4 81.06 a0.982728
								 0.969335 -180 0 0 -0.00115208 1.38071 L17.37 94.44 A1.71315 1.6898 0 0 1 17.36 96.82 C17.06 97.12
								 16.66 97.28 16.23 97.28 L16.05 97.27 Z" class="st3"/>
				</g>
			</g>
		</g>
	</g>
</svg>
